X:155
T: MIT FROMMEN WUENSCHEN GRUESS ICH IHN
N: F0287
O: Europa, Mitteleuropa, Deutschland
R: Jugend - Lied, religioes, Neujahr
M: 4/4
L: 1/8
K: C
G,2 | E2D2C2B,2 | A,3A,A,2
D2 | F2E2D2C2 | B,2z4
B,2 | D3CB,2B,2 | C2D2E2
C2 | D3DC2B,2 | C4z2

@@@ Tune index: 5586
